new_assets/assets/img/demo/add_more.svg

<?xml version="1.0" encoding="utf-8"?>
<!-- Generator: Adobe Illustrator 16.0.0, SVG Export Plug-In . SVG Version: 6.00 Build 0)  -->
<!DOCTYPE svg PUBLIC "-//W3C//DTD SVG 1.1//EN" "http://www.w3.org/Graphics/SVG/1.1/DTD/svg11.dtd">
<svg version="1.1" id="Layer_1" xmlns="http://www.w3.org/2000/svg" xmlns:xlink="http://www.w3.org/1999/xlink" x="0px" y="0px"
	 width="83px" height="83px" viewBox="0 0 83 83" enable-background="new 0 0 83 83" xml:space="preserve">
<g>
	<path fill="#778095" d="M73.5,0h-6v1H68h5h0.5V0L73.5,0z M63.5,0h-6v1H58h5h0.5V0L63.5,0z M53.5,0h-6v1H48h5h0.5V0L53.5,0z M43.5,0
		h-6v1H38h5h0.5V0L43.5,0z M33.5,0h-6v1H28h5h0.5V0L33.5,0z M23.5,0h-6v1H18h5h0.5V0L23.5,0z M13.5,0h-6v1H8h5h0.5V0L13.5,0z M3.5,0
		H0v1l0,0c0,0.5,0,1,0,1v0.5h1V2V1h2h0.5V0L3.5,0z M1,6.5H0V7v5v0.5h1V12V7V6.5L1,6.5z M1,16.5H0V17v5v0.5h1V22v-5V16.5L1,16.5z
		 M1,26.5H0V27v5v0.5h1V32v-5V26.5L1,26.5z M1,36.5H0V37v5v0.5h1V42v-5V36.5L1,36.5z M1,46.5H0V47v5v0.5h1V52v-5V46.5L1,46.5z
		 M1,56.5H0V57v5v0.5h1V62v-5V56.5L1,56.5z M1,66.5H0V67v5v0.5h1V72v-5V66.5L1,66.5z M1,76.5H0V77v5v0.5h1V82v-5V76.5L1,76.5z
		 M9.5,82H9H4H3.5v1H4h5h0.5V82L9.5,82z M19.5,82H19h-5h-0.5v1H14h5h0.5V82L19.5,82z M29.5,82H29h-5h-0.5v1H24h5h0.5V82L29.5,82z
		 M39.5,82H39h-5h-0.5v1H34h5h0.5V82L39.5,82z M49.5,82H49h-5h-0.5v1H44h5h0.5V82L49.5,82z M59.5,82H59h-5h-0.5v1H54h5h0.5V82
		L59.5,82z M69.5,82H69h-5h-0.5v1H64h5h0.5V82L69.5,82z M79.5,82H79h-5h-0.5v1H74h5h0.5V82L79.5,82z M83,76.5h-1V77v5v0.5h1V76.5
		L83,76.5z M83,66.5h-1V67v5v0.5h1V66.5L83,66.5z M83,56.5h-1V57v5v0.5h1V56.5L83,56.5z M83,46.5h-1V47v5v0.5h1V46.5L83,46.5z
		 M83,36.5h-1V37v5v0.5h1V36.5L83,36.5z M83,26.5h-1V27v5v0.5h1V26.5L83,26.5z M83,16.5h-1V17v5v0.5h1V16.5L83,16.5z M83,6.5h-1V7v5
		v0.5h1V6.5L83,6.5z M83,0h-5.5v1H78h4v1v0.5h1V0L83,0z"/>
</g>
<rect x="33" y="39.8" fill="#778095" width="17" height="3.4"/>
<rect x="39.8" y="33" fill="#778095" width="3.4" height="17"/>
</svg>

<svg xmlns="http://www.w3.org/2000/svg" width="83" height="83"><path fill="#778095" d="M73.5 0h-6v1h6V0zm-10 0h-6v1h6V0zm-10 0h-6v1h6V0zm-10 0h-6v1h6V0zm-10 0h-6v1h6V0zm-10 0h-6v1h6V0zm-10 0h-6v1h6V0zm-10 0H0v2.5h1V1h2.5V0zM1 6.5H0v6h1v-6zm0 10H0v6h1v-6zm0 10H0v6h1v-6zm0 10H0v6h1v-6zm0 10H0v6h1v-6zm0 10H0v6h1v-6zm0 10H0v6h1v-6zm0 10H0v6h1v-6zM9.5 82h-6v1h6v-1zm10 0h-6v1h6v-1zm10 0h-6v1h6v-1zm10 0h-6v1h6v-1zm10 0h-6v1h6v-1zm10 0h-6v1h6v-1zm10 0h-6v1h6v-1zm10 0h-6v1h6v-1zm3.5-5.5h-1v6h1v-6zm0-10h-1v6h1v-6zm0-10h-1v6h1v-6zm0-10h-1v6h1v-6zm0-10h-1v6h1v-6zm0-10h-1v6h1v-6zm0-10h-1v6h1v-6zm0-10h-1v6h1v-6zM83 0h-5.5v1H82v1.5h1V0z"/><path fill="#778095" d="M33 39.8H50V43.199999999999996H33z"/><path fill="#778095" d="M39.8 33H43.199999999999996V50H39.8z"/></svg>
